X: 1
T: Arizona Autumn
C: by Terry Traub 11-2-2010
M: 4/4
L: 1/8
R: reel
K: Gmaj
|: D2|"G"B2 B2 "G/F#"B3 A|"Em"BABd BA G2|"Am"A2 A2 "D"A2 A>G|"G"Bd-"D"d2 d4|
"G"B2 B2 B2 B>A|"Bm"B d2 "Em"B2 A G2|"C"B2 B2 "D"B A3|"G"G6 :|
|: D2|"Am7"A4 "D"A3 G|"Bm"B d2 "Em"B2 A G2|"Am7"A2 A2 "D"A2 A>G|"Bm"B d2 "Em"B d4|
"Am7"A2 A2 "D"A2 A>G|"Bm"B d2 "Em"B2 A G2|"C"B2 B2 "D"B A3|"G"G6 :|